modules/linea-weather/icons/weather-hail-sun.svg

<svg xmlns="http://www.w3.org/2000/svg" width="64" height="64" viewBox="0 0 64 64"><path fill="none" stroke="#000" stroke-width="2" stroke-miterlimit="10" d="M56 45c4.19 0 7-2.81 7-7 0-4.189-2.81-9-7-9 0-10.475-9.525-18-20-18-9.271 0-17.348 6.211-19 15h-2c-5.238 0-9 4.762-9 10s3.762 9 9 9h41z"/><path fill="none" stroke="#000" stroke-width="2" stroke-miterlimit="10" d="M29.999 11.752A12.945 12.945 0 0 0 22 9C14.82 9 9 14.82 9 22c0 2.577.707 3.979 2 6m-5-6H0M22 6V0M10 10L4 4m16 44l-4 9m14-9l-4 9m14-9l-4 9m14-9l-4 9m-31 3l-1 2m11-2l-1 2m11-2l-1 2m11-2l-1 2"/></svg>

<svg xmlns="http://www.w3.org/2000/svg" width="64" height="64" viewBox="0 0 64 64"><path fill="none" stroke="#000" stroke-width="2" stroke-miterlimit="10" d="M56 45c4.19 0 7-2.81 7-7 0-4.189-2.81-9-7-9 0-10.475-9.525-18-20-18-9.271 0-17.348 6.211-19 15h-2c-5.238 0-9 4.762-9 10s3.762 9 9 9h41z"/><path fill="none" stroke="#000" stroke-width="2" stroke-miterlimit="10" d="M29.999 11.752A12.945 12.945 0 0 0 22 9C14.82 9 9 14.82 9 22c0 2.577.707 3.979 2 6M6 22H0M22 6V0M10 10L4 4M20 48l-4 9M30 48l-4 9M40 48l-4 9M50 48l-4 9M15 60l-1 2M25 60l-1 2M35 60l-1 2M45 60l-1 2"/></svg>
